rider/src/main/resources/Icons/Godot.svg

<?xml version="1.0" encoding="UTF-8"?>
<svg xmlns="http://www.w3.org/2000/svg" xmlns:xlink="http://www.w3.org/1999/xlink" width="16" height="16" viewBox="0 0 16 16" version="1.1">
<g id="surface1">
<path style=" stroke:none;fill-rule:nonzero;fill:rgb(100%,100%,100%);fill-opacity:1;" d="M 14.363281 10.519531 C 14.363281 10.519531 14.34375 10.386719 14.328125 10.390625 L 11.976562 10.617188 C 11.789062 10.632812 11.644531 10.785156 11.628906 10.972656 L 11.566406 11.898438 L 9.746094 12.027344 L 9.621094 11.1875 C 9.59375 11 9.429688 10.859375 9.242188 10.859375 L 6.757812 10.859375 C 6.570312 10.859375 6.40625 11 6.378906 11.1875 L 6.253906 12.027344 L 4.433594 11.898438 L 4.371094 10.972656 C 4.355469 10.785156 4.210938 10.632812 4.023438 10.617188 L 1.667969 10.390625 C 1.65625 10.386719 1.648438 10.519531 1.636719 10.519531 L 1.632812 11.027344 L 3.625 11.347656 L 3.691406 12.285156 C 3.707031 12.472656 3.859375 12.625 4.046875 12.640625 L 6.554688 12.820312 C 6.5625 12.820312 6.574219 12.820312 6.582031 12.820312 C 6.769531 12.820312 6.933594 12.679688 6.960938 12.492188 L 7.089844 11.628906 L 8.910156 11.628906 L 9.039062 12.492188 C 9.066406 12.679688 9.230469 12.820312 9.417969 12.820312 C 9.425781 12.820312 9.4375 12.820312 9.445312 12.820312 L 11.953125 12.640625 C 12.140625 12.625 12.292969 12.472656 12.308594 12.285156 L 12.375 11.347656 L 14.367188 11.027344 Z M 14.363281 10.519531 "/>
<path style=" stroke:none;fill-rule:nonzero;fill:rgb(27.843137%,54.901961%,74.901961%);fill-opacity:1;" d="M 1.636719 6.679688 L 1.636719 10.519531 C 1.644531 10.519531 1.648438 10.519531 1.65625 10.519531 L 4.011719 10.746094 C 4.132812 10.757812 4.230469 10.855469 4.238281 10.980469 L 4.3125 12.019531 L 6.367188 12.167969 L 6.507812 11.207031 C 6.527344 11.082031 6.632812 10.992188 6.757812 10.992188 L 9.242188 10.992188 C 9.367188 10.992188 9.472656 11.082031 9.492188 11.207031 L 9.632812 12.167969 L 11.6875 12.019531 L 11.761719 10.980469 C 11.769531 10.855469 11.867188 10.757812 11.988281 10.746094 L 14.34375 10.519531 C 14.347656 10.519531 14.355469 10.519531 14.363281 10.519531 L 14.363281 6.679688 L 14.371094 6.679688 C 14.683594 6.28125 14.972656 5.859375 15.25 5.414062 C 14.882812 4.789062 14.433594 4.226562 13.949219 3.710938 C 13.503906 3.933594 13.070312 4.1875 12.660156 4.460938 C 12.457031 4.257812 12.226562 4.089844 12 3.914062 C 11.777344 3.738281 11.523438 3.605469 11.285156 3.453125 C 11.359375 2.925781 11.394531 2.40625 11.40625 1.863281 C 10.792969 1.554688 10.136719 1.347656 9.472656 1.199219 C 9.210938 1.644531 8.96875 2.128906 8.757812 2.597656 C 8.507812 2.554688 8.257812 2.539062 8.003906 2.539062 C 8.003906 2.539062 8 2.539062 8 2.539062 C 8 2.539062 7.996094 2.539062 7.996094 2.539062 C 7.742188 2.539062 7.492188 2.554688 7.242188 2.597656 C 7.03125 2.128906 6.789062 1.644531 6.523438 1.199219 C 5.863281 1.347656 5.207031 1.554688 4.59375 1.863281 C 4.605469 2.40625 4.640625 2.925781 4.714844 3.453125 C 4.476562 3.605469 4.222656 3.738281 4 3.914062 C 3.773438 4.089844 3.542969 4.257812 3.339844 4.460938 C 2.929688 4.1875 2.496094 3.933594 2.050781 3.710938 C 1.566406 4.226562 1.117188 4.789062 0.75 5.414062 C 1.027344 5.859375 1.316406 6.28125 1.628906 6.679688 Z M 1.636719 6.679688 "/>
<path style=" stroke:none;fill-rule:nonzero;fill:rgb(27.843137%,54.901961%,74.901961%);fill-opacity:1;" d="M 12.25 11.230469 L 12.179688 12.273438 C 12.167969 12.402344 12.070312 12.5 11.941406 12.511719 L 9.4375 12.6875 C 9.429688 12.6875 9.421875 12.691406 9.417969 12.691406 C 9.292969 12.691406 9.183594 12.597656 9.167969 12.472656 L 9.023438 11.496094 L 6.976562 11.496094 L 6.832031 12.472656 C 6.8125 12.605469 6.695312 12.699219 6.5625 12.6875 L 4.058594 12.511719 C 3.929688 12.5 3.832031 12.402344 3.820312 12.273438 L 3.75 11.230469 L 1.632812 11.027344 C 1.632812 11.253906 1.636719 11.503906 1.636719 11.550781 C 1.636719 13.789062 4.472656 14.863281 7.996094 14.875 L 8.003906 14.875 C 11.527344 14.863281 14.363281 13.789062 14.363281 11.550781 C 14.363281 11.5 14.367188 11.253906 14.367188 11.027344 Z M 12.25 11.230469 "/>
<path style=" stroke:none;fill-rule:nonzero;fill:rgb(100%,100%,100%);fill-opacity:1;" d="M 6.082031 8.238281 C 6.082031 9.019531 5.445312 9.65625 4.664062 9.65625 C 3.878906 9.65625 3.246094 9.019531 3.246094 8.238281 C 3.246094 7.453125 3.878906 6.820312 4.664062 6.820312 C 5.445312 6.820312 6.082031 7.453125 6.082031 8.238281 "/>
<path style=" stroke:none;fill-rule:nonzero;fill:rgb(25.490196%,25.098039%,25.882353%);fill-opacity:1;" d="M 5.738281 8.320312 C 5.738281 8.839844 5.320312 9.261719 4.796875 9.261719 C 4.277344 9.261719 3.855469 8.839844 3.855469 8.320312 C 3.855469 7.800781 4.277344 7.378906 4.796875 7.378906 C 5.320312 7.378906 5.738281 7.800781 5.738281 8.320312 "/>
<path style=" stroke:none;fill-rule:nonzero;fill:rgb(100%,100%,100%);fill-opacity:1;" d="M 8 9.785156 C 7.746094 9.785156 7.542969 9.597656 7.542969 9.371094 L 7.542969 8.0625 C 7.542969 7.835938 7.746094 7.648438 8 7.648438 C 8.253906 7.648438 8.457031 7.835938 8.457031 8.0625 L 8.457031 9.371094 C 8.457031 9.597656 8.253906 9.785156 8 9.785156 "/>
<path style=" stroke:none;fill-rule:nonzero;fill:rgb(100%,100%,100%);fill-opacity:1;" d="M 9.917969 8.238281 C 9.917969 9.019531 10.554688 9.65625 11.335938 9.65625 C 12.121094 9.65625 12.753906 9.019531 12.753906 8.238281 C 12.753906 7.453125 12.121094 6.820312 11.335938 6.820312 C 10.554688 6.820312 9.917969 7.453125 9.917969 8.238281 "/>
<path style=" stroke:none;fill-rule:nonzero;fill:rgb(25.490196%,25.098039%,25.882353%);fill-opacity:1;" d="M 10.261719 8.320312 C 10.261719 8.839844 10.679688 9.261719 11.203125 9.261719 C 11.722656 9.261719 12.144531 8.839844 12.144531 8.320312 C 12.144531 7.800781 11.722656 7.378906 11.203125 7.378906 C 10.679688 7.378906 10.261719 7.800781 10.261719 8.320312 "/>
</g>
</svg>

<svg width="16" height="16" viewBox="0 0 16 16" xmlns="http://www.w3.org/2000/svg">
  <path fill="#fff" d="M14.363 10.52s-.02-.133-.035-.13l-2.351.227a.385.385 0 0 0-.348.356l-.063.925-1.82.13-.125-.84a.386.386 0 0 0-.379-.329H6.758a.386.386 0 0 0-.38.329l-.124.84-1.82-.13-.063-.925a.385.385 0 0 0-.348-.356l-2.355-.226c-.012-.004-.02.129-.031.129l-.004.507 1.992.32.066.938c.016.188.168.34.356.356l2.508.18h.027a.386.386 0 0 0 .379-.329l.129-.863h1.82l.13.863a.386.386 0 0 0 .378.328h.027l2.508-.18a.392.392 0 0 0 .356-.355l.066-.937 1.992-.32Zm0 0"/>
  <path fill="#478cbf" d="M1.637 6.68v3.84h.02l2.355.226c.12.012.218.11.226.234l.074 1.04 2.055.148.14-.961a.252.252 0 0 1 .25-.215h2.485c.125 0 .23.09.25.215l.14.961 2.056-.148.074-1.04a.251.251 0 0 1 .226-.234l2.356-.226h.02V6.68h.007c.313-.399.602-.82.879-1.266a9.626 9.626 0 0 0-1.3-1.703c-.446.223-.88.477-1.29.75-.203-.203-.433-.371-.66-.547-.223-.176-.477-.309-.715-.46.074-.528.11-1.048.121-1.59a8.326 8.326 0 0 0-1.933-.665c-.262.446-.504.93-.715 1.399-.25-.043-.5-.059-.754-.059h-.008c-.254 0-.504.016-.754.059a13.58 13.58 0 0 0-.719-1.399 8.36 8.36 0 0 0-1.93.664c.012.543.048 1.063.122 1.59-.238.152-.492.285-.715.461-.227.176-.457.344-.66.547-.41-.274-.844-.527-1.29-.75a9.626 9.626 0 0 0-1.3 1.703c.277.445.566.867.879 1.266Zm0 0"/>
  <path fill="#478cbf" d="m12.25 11.23-.07 1.043a.26.26 0 0 1-.239.239l-2.504.175c-.007 0-.015.004-.019.004a.253.253 0 0 1-.25-.218l-.145-.977H6.977l-.145.977a.25.25 0 0 1-.27.214l-2.503-.175a.26.26 0 0 1-.239-.239l-.07-1.043-2.117-.203c0 .227.004.477.004.524 0 2.238 2.836 3.312 6.36 3.324h.007c3.523-.012 6.36-1.086 6.36-3.324 0-.051.003-.297.003-.524Zm0 0"/>
  <path fill="#fff" d="M6.082 8.238a1.418 1.418 0 1 1-2.836 0 1.418 1.418 0 0 1 2.836 0"/>
  <path fill="#414042" d="M5.738 8.32a.942.942 0 1 1-1.882-.001.942.942 0 0 1 1.882.001"/>
  <path fill="#fff" d="M8 9.785c-.254 0-.457-.187-.457-.414V8.062c0-.226.203-.414.457-.414s.457.188.457.415V9.37c0 .227-.203.414-.457.414m1.918-1.546a1.418 1.418 0 1 0 2.836 0 1.418 1.418 0 0 0-2.836 0"/>
  <path fill="#414042" d="M10.262 8.32a.942.942 0 1 0 1.882-.001.942.942 0 0 0-1.882.001"/>
</svg>
